X: 061
T: I'll gae nae mair to your Town
R: reel
B: Robert Bremner "A Collection of Scots Reels or Country Dances" p.6 #1
S: http://imslp.org/wiki/A_Collection_of_Scots_Reels_or_Country_Dances_(Bremner,_Robert)
Z: 2013 John Chambers <jc:trillian.mit.edu>
M: C|
L: 1/8
K: F
% - - - - - - - - - - - - - - - - - - - - - - - - -
V: 1
A |\
Ff-fc TA2 Fc | (A/B/c) Fc AGGg |\
(a/g/f/e/ f)c TA2 Fc | (A/B/c) Gc AF F :|
|: (c |\
AF)cF dFcF | AFcF (d/c/B/A/) Gc |\
AFcF dFcF | (A/B/c) Gc AFF :|
% - - - - - - - - - - - - - - - - - - - - - - - - -
V: 2 clef=bass middle=d
z |\
f2f2 f2f2 | f2f2 g2g2 |\
f2f2 f2f2 | c2c2 F2F :|\
|: z | f2f2
f2f2 | f2f2 g2g2 |\
f2f2 f2f2 | c2c2 F2F :|
% - - - - - - - - - - - - - - - - - - - - - - - - -

%%sep 1 1 500
%%sep 1 1 500
